X: 23003
T: Last Days Of Summer, The
R: hornpipe
M: 4/4
K: Dmajor
(3A,B,C|:DCDF AFGA|BdAd (3Bcd AF|GABc ~d3e|fd (3fga e2ec|
dBAF DE (3FGA|~B3d A2AF|GFED CBAG|1 F2D2 D2 (3A,B,C|2 F2D2 D2 c2:|
|:dcde fdfA|cBcd eA (3ABc|dcBA FEBA|E2 (3EFA B2 c2|
dcBA DEFA|B2Bd A2AF|GFED CBAG|1 F2D2 D2 c2|2 F2D2 D2 (3A,B,C:|

